X:1
T:Där borta
T:Ludvig Norman (1831-1885)
T:Där borta
T:©PA Aglert Edition may be freely distributed, duplicated, performed and recorded
T:©PA Aglert Edition may be freely distributed, duplicated, performed and recorded
T:©PA Aglert Edition may be freely distributed, duplicated, performed and recorded
T:©PA Aglert Edition may be freely distributed, duplicated, performed and recorded
T:©PA Aglert Edition may be freely distributed, duplicated, performed and recorded
C:Ludvig Norman (1831-1885)
Z:©PA Aglert
Z:Edition may be freely distributed, duplicated, performed and recorded
%%score [ 1 2 3 4 ]
L:1/8
Q:1/4=60
M:3/8
K:C
V:1 treble nm="S"
V:2 treble nm="A"
V:3 treble-8 nm="T"
V:4 bass nm="B"
V:1
"^Allegretto con moto"!p! G | G>cG/A/ | .B.c.d | G>cG/A/ | G2 G |!<(! G>AB/!<)!c/ | %6
w: Där|bor- ta ö- ver|sko- gen en|få- gel hö- res|slå, Där|bor- ta bred- vid|
!<(! (d!<)!e)!>(!^c!>)! | dA/B/!courtesy!=c/d/ |!<(! (B2!<)!!>(! _B!>)! | A2- A/)d/ | dG!mf!G | %11
w: bäc- * ken,|där ser jag hin- den|gå, _|_ _ där|bor- ta. Och|
 G>cG/A/ | Bcd | G>cG/A/ | G2 G |!<(! (Gc/)e/!<)!d/c/ | BB_B | A>Ad/d/ |!<(! (de)!<)!^c | %19
w: där som få- geln|sjun- ger och|där som hin- den|går, där|bor- * ta un- der|tal- len min|älsk- lings hyd- da|står, _ min|
 d>de/^f/ | g2 z |!pp! GG/G/_A/c/ | .B.d z | GG/G/_A/c/ | B z/!f! G/G/G/ | !>!e2 c | dG/G/G/G/ | %27
w: älsk- lings hyd- da|står.|Ack, att jag ock- så|vo- re|där få- geln hö- res|slå! Ack, att jag|ock- så|vo- re där få- geln|
!<(! (eg)!<)!c | d2 G |!>(! e>e!>!e/>!>)!d/ | dc/!p!c/d/e/ | f2 e | d2!f! d | !>!g>ec/>d/ | %34
w: hö- * res|slå! där|bor- ta bred- vid|bäc- ken, där hin- den|sy- nes|gå, där|bor- ta bred- vid|
 ec!p!A | G>.G.A/.B/ | c z!p! e | d3- | dc"^un poco rit."G |!>(! F3!>)! | E z z |] %41
w: bäc- ken, där|hin- den sy- nes|gå, där|bor-|* ta, där|bor-|ta!|
V:2
!p! G | E>EG/G/ | .F.F.F | E>EE/_E/ | D2 F |!<(! !courtesy!=E>GG/!<)!G/ |!<(! G2!<)!!>(! G!>)! | %7
w: Där|bor- ta ö- ver|sko- gen en|få- gel hö- res|slå, Där|bor- ta bred- vid|bäc- ken,|
 GG/G/G/^F/ |!<(! (G2!<)!!>(! E!>)! | G2- G/)^F/ | GG!mf!!courtesy!=F | E>EG/G/ | FFF | E>EE/_E/ | %14
w: där ser jag hin- den|gå, _|_ _ där|bor- ta. Och|där som få- geln|sjun- ger och|där som hin- den|
 D2 F |!<(! (EG/)G/!<)!G/G/ | GGE | G>G^F/F/ | G2 G | (G^F/)F/G/A/ | B2 z |!pp! DD/D/F/F/ | %22
w: går, där|bor- * ta un- der|tal- len min|älsk- lings hyd- da|står, min|älsk- * lings hyd- da|står.|Ack, att jag ock- så|
 .F.F z | DD/D/F/F/ | G z/!f! G/G/G/ | G2 G | GD/F/F/F/ | E2 G | G2 F |!>(! E>G!>!^G/>G/!>)! | %30
w: vo- re|där få- geln hö- res|slå! Ack, att jag|ock- så|vo- re där få- geln|hö- res|slå! där|bor- ta bred- vid|
 ^GA/!p!A/B/c/ | d2 c | B2!f! G | !>!G>GA/>A/ | ^GA!p!D | (D/E/F/).F/.F/.F/ | E z!p! G | F3- | %38
w: bäc- ken, där hin- den|sy- nes|gå, där|bor- ta bred- vid|bäc- ken, där|hin- * * den sy- nes|gå, där|bor-|
 FEG | G3 | G z z |] %41
w: * ta, där|bor-|ta!|
V:3
!p! G | G>Ge/c/ | .d.A.B | c>GG/^F/ | G2 G |!<(! (Gc/)e/d/!<)!c/ |!<(! (B!<)!^A)!>(!A!>)! | %7
w: Där|bor- ta ö- ver|sko- gen en|få- gel hö- res|slå, Där|bor- * ta bred- vid|bäc- * ken,|
 Bc/B/A/d/ |!<(! (d!<)!e!>(!^c)!>)! | dA/B/!courtesy!=c/d/ | B2!mf! G | G>Ge/c/ | dAB | c>GG/^F/ | %14
w: där ser jag hin- den|gå, _ _|där ser jag hin- den|gå. Och|där som få- geln|sjun- ger och|där som hin- den|
 G2 G |!<(! G>A!<)!B/c/ | de^c | (dA/)B/c/d/ | (B2 A- | A2- A/)d/ | dG z |!pp! BB/B/c/c/ | .d.B z | %23
w: går, där|bor- ta un- der|tal- len min|älsk- * lings hyd- da|står, _|_ _ där|bor- ta!|Ack, att jag ock- så|vo- re|
 BB/B/c/c/ | d z z |!f! GG/c/G/A/ | (Bc)d | GG/c/G/A/ | (Bc)d |!>(! c>c!>!B/>!>)!B/ | BA z | %31
w: där få- geln hö- res|slå!|Ack, att jag ock- så|vo- * re|där få- geln hö- res|slå! _ där|bor- ta bred- vid|bäc- ken,|
 z/ d/A/B/c/A/ | (dg)!f!B | !>!c>cA/>A/ | BA!p!c | (cB/).B/.d/.d/ | c z!p! G | G3- | GGG | %39
w: där hin- den sy- nes|gå, _ där|bor- ta bred- vid|bäc- ken, där|hin- * den sy- nes|gå, där|bor-|* ta, där|
!>(! G>cA/!>)!B/ | c z z |] %41
w: hin- den sy- nes|gå!|
V:4
!p! G, | C,>C,C,/C,/ | .C,.C,.C, | C,>C,C,/C,/ | (B,,D,)G,, |!<(! C,>C,D,/!<)!E,/ | %6
w: Där|bor- ta ö- ver|sko- gen en|få- gel hö- res|slå, _ Där|bor- ta bred- vid|
!<(! (D,!<)!!>(!^C,)E,!>)! | D,D,/D,/D,/D,/ |!<(! G,2!<)!!>(! G,!>)! | D,3 | G,,2!mf! G, | %11
w: bäc- * ken,|där ser jag hin- den|gå, där|bor-|ta. Och|
 C,>C,C,/C,/ | C,C,C, | C,>C,C,/C,/ | (B,,D,)G,, |!<(! C,>C,D,/!<)!E,/ | D,^C,G, | D,>D,D,/D,/ | %18
w: där som få- geln|sjun- ger och|där som hin- den|går, _ där|bor- ta un- der|tal- len min|älsk- lings hyd- da|
 G,2 E, | D,>D,D,/D,/ | G,,2 z |!pp! G,G,/G,/F,/_A,/ | .G,.G, z | G,G,/G,/F,/_A,/ | G, z z | %25
w: står, min|älsk- lings hyd- da|står.|Ack, att jag ock- så|vo- re|där få- geln hö- res|slå!|
!f! C,C,/C,/E,/C,/ | (G,,A,,)B,, | C,C,/C,/E,/C,/ | (G,,A,,)B,, |!>(! C,>C,!>!E,/>!>)!E,/ | %30
w: Ack, att jag ock- så|vo- * re|där få- geln hö- res|slå! _ där|bor- ta bred- vid|
 E,A,, z | z/ D,/D,/D,/E,/^F,/ | G,2!f! !courtesy!=F, | !>!E,>E,F,/>F,/ | E,F,!p!^F, | %35
w: bäc- ken,|där hin- den sy- nes|gå, där|bor- ta bred- vid|bäc- ken, där|
 G,>.G,.G,/.G,/ | C, z!p! C, | G,,>C,G,,/A,,/ | B,,C,E, |!>(! (G,2 G,,)!>)! | C, z z |] %41
w: hin- den sy- nes|gå, där|bor- ta bred- vid|bäc- ken, där|bor- *|ta!|

